X:475
M:C|
L:1/8
K:E Minor
g|dega bgab|gd d/d/d gddg|dega bgab|ge e/e/e geeg|dega bgab|
gd d/d/d gddg|bgae degB|BA A/A/A gee||

